; generated by PrusaSlicer 2.4.0+win64 on 2022-02-27 at 20:28:08 UTC

; 

; external perimeters extrusion width = 0.45mm
; perimeters extrusion width = 0.45mm
; infill extrusion width = 0.45mm
; solid infill extrusion width = 0.45mm
; top infill extrusion width = 0.40mm
; first layer extrusion width = 0.42mm

; external perimeters extrusion width = 0.45mm
; perimeters extrusion width = 0.45mm
; infill extrusion width = 0.45mm
; solid infill extrusion width = 0.45mm
; top infill extrusion width = 0.40mm
; first layer extrusion width = 0.42mm

; external perimeters extrusion width = 0.45mm
; perimeters extrusion width = 0.45mm
; infill extrusion width = 0.45mm
; solid infill extrusion width = 0.45mm
; top infill extrusion width = 0.40mm
; first layer extrusion width = 0.42mm

; external perimeters extrusion width = 0.45mm
; perimeters extrusion width = 0.45mm
; infill extrusion width = 0.45mm
; solid infill extrusion width = 0.45mm
; top infill extrusion width = 0.40mm
; first layer extrusion width = 0.42mm

; external perimeters extrusion width = 0.45mm
; perimeters extrusion width = 0.45mm
; infill extrusion width = 0.45mm
; solid infill extrusion width = 0.45mm
; top infill extrusion width = 0.40mm
; first layer extrusion width = 0.42mm

M73 P0 R143
M73 Q0 S146
M201 X1000 Y1000 Z200 E5000 ; sets maximum accelerations, mm/sec^2
M203 X200 Y200 Z12 E120 ; sets maximum feedrates, mm/sec
M204 P1250 R1250 T1250 ; sets acceleration (P, T) and retract acceleration (R), mm/sec^2
M205 X8.00 Y8.00 Z0.40 E4.50 ; sets the jerk limits, mm/sec
M205 S0 T0 ; sets the minimum extruding and travel feed rate, mm/sec
M107
;TYPE:Custom
M862.3 P "MK3S" ; printer model check
M862.1 P0.4 ; nozzle diameter check
M115 U3.10.0 ; tell printer latest fw version
G90 ; use absolute coordinates
M83 ; extruder relative mode
M104 S215 ; set extruder temp
M140 S60 ; set bed temp
M190 S60 ; wait for bed temp
M109 S215 ; wait for extruder temp
G28 W ; home all without mesh bed level
G80 ; mesh bed leveling
G1 Z0.2 F720
G1 Y-3 F1000 ; go outside print area
G92 E0
G1 X60 E9 F1000 ; intro line
G1 X100 E12.5 F1000 ; intro line
G92 E0
M221 S95

; Don't change E values below. Excessive value can damage the printer.

M907 E538 ; set extruder motor current
G21 ; set units to millimeters
G90 ; use absolute coordinates
M83 ; use relative distances for extrusion
M900 K0.05 ; Filament gcode LA 1.5
M900 K30 ; Filament gcode LA 1.0
M107
;LAYER_CHANGE
;Z:0.2
;HEIGHT:0.2
;BEFORE_LAYER_CHANGE
G92 E0.0
;0.2


G1 E-.8 F2100
G1 Z.4 F720
;AFTER_LAYER_CHANGE
;0.2
G1 X25.154 Y28.025 F10800
G1 Z.2 F720
G1 E.8 F2100
M204 S800
;TYPE:Skirt/Brim
;WIDTH:0.42
G1 F1200
G1 X57.036 Y-.592 E1.34326
G1 X58.031 Y-1.173 E.03613
G1 X59.466 Y-1.662 E.04754
G1 X60.874 Y-1.915 E.04485
G1 X62.359 Y-1.966 E.04659
G1 X188.505 Y-1.381 E3.95524
G1 X189.871 Y-1.228 E.04312
G1 X191.424 Y-.825 E.05029
G1 X230.228 Y12.841 E1.28992
G1 X231.33 Y13.645 E.04278
M73 Q0 S145
G1 X231.815 Y15.084 E.0476
G1 X231.791 Y95.242 E2.5133
G1 X224.629 Y202.71 E3.37707
G1 X224.152 Y203.988 E.04278
M73 P0 R142
G1 X222.914 Y204.837 E.04705
G1 X221.46 Y205.254 E.04744
G1 X220.634 Y205.408 E.02634
G1 X219.525 Y205.401 E.03477
G1 X113.357 Y196.267 E3.34112
G1 X112.841 Y196.149 E.01659
G1 X101.499 Y192.183 E.37673
G1 X2.576 Y154.329 E3.321
G1 X1.496 Y153.795 E.03777
G1 X.643 Y153.038 E.03575
G1 X.325 Y152.624 E.01637
G1 X-.185 Y151.604 E.03575
G1 X-.346 Y151.005 E.01946
G1 X-.434 Y150.219 E.0248
G1 X-2.124 Y54.499 E3.00171
G1 X-2.035 Y53.629 E.02741
G1 X-1.875 Y53.029 E.01946
G1 X-1.365 Y52.01 E.03575
G1 X-.749 Y51.274 E.03007
G1 X25.109 Y28.065 E1.08945
M204 S1000
; printing object 6-7.stl id:3 copy 0
;WIPE_START
G1 F8640
G1 X27.558 Y25.866 E-.76
;WIPE_END
G1 E-.04 F2100
G1 Z.6 F720
G1 X97.756 Y57.059 F10800
G1 Z.2 F720
G1 E.8 F2100
M204 S800
;TYPE:Perimeter
G1 F1200
G1 X97.922 Y57.46 E.01359
G1 X98.406 Y58.09 E.02491
G1 X98.595 Y58.236 E.00748
G1 X98.492 Y58.188 E.00356
G1 X97.925 Y58.082 E.01809
G1 X97.35 Y58.122 E.01808
G1 X96.861 Y58.284 E.01616
G1 X94.239 Y59.447 E.08992
G1 X91.611 Y60.433 E.088
G1 X88.931 Y61.266 E.088
G1 X86.206 Y61.94 E.088
G1 X83.447 Y62.455 E.088
G1 X80.663 Y62.809 E.088
G1 X77.863 Y62.999 E.088
G1 X75.056 Y63.027 E.088
G1 X72.252 Y62.891 E.088
G1 X69.462 Y62.592 E.088
G1 X66.693 Y62.131 E.088
G1 X63.956 Y61.51 E.088
G1 X61.259 Y60.731 E.088
G1 X58.613 Y59.796 E.088
G1 X56.026 Y58.708 E.088
G1 X53.506 Y57.472 E.088
G1 X51.062 Y56.091 E.088
G1 X48.703 Y54.57 E.088
G1 X46.437 Y52.915 E.088
G1 X44.27 Y51.13 E.088
G1 X42.211 Y49.222 E.088
G1 X40.267 Y47.198 E.088
G1 X38.444 Y45.064 E.088
G1 X36.748 Y42.827 E.08801
G1 X35.145 Y40.438 E.0902
G1 X34.777 Y40.017 E.01754
G1 X35.487 Y39.941 E.02239
G1 X36.234 Y39.632 E.02532
G1 X36.877 Y39.121 E.02577
G1 X37.105 Y38.755 E.01352
G1 X37.414 Y39.48 E.02471
G1 X39.017 Y41.827 E.08912
G1 X40.738 Y44.039 E.08785
G1 X42.59 Y46.141 E.08785
G1 X44.568 Y48.125 E.08784
G1 X46.663 Y49.985 E.08784
G1 X48.869 Y51.713 E.08784
G1 X51.175 Y53.303 E.08784
G1 X53.575 Y54.749 E.08784
G1 X56.059 Y56.045 E.08784
G1 X58.561 Y57.162 E.08591
G1 X61.24 Y58.17 E.08976
G1 X63.919 Y58.991 E.08786
G1 X66.643 Y59.647 E.08784
G1 X69.402 Y60.135 E.08784
G1 X72.186 Y60.453 E.08784
G1 X74.983 Y60.6 E.08784
G1 X77.785 Y60.575 E.08784
G1 X80.58 Y60.38 E.08784
G1 X83.357 Y60.014 E.08784
G1 X86.107 Y59.478 E.08784
G1 X88.82 Y58.775 E.08784
G1 X91.484 Y57.908 E.08784
G1 X94.09 Y56.879 E.08784
G1 X96.645 Y55.685 E.08844
G1 X97.474 Y55.18 E.03044
G1 X97.676 Y55.009 E.00831
G1 X97.618 Y55.15 E.0048
G1 X97.514 Y55.938 E.02491
G1 X97.618 Y56.726 E.02491
G1 X97.733 Y57.004 E.00944
M204 S1000
;WIPE_START
G1 F8640
G1 X97.922 Y57.46 E-.11395
G1 X98.406 Y58.09 E-.18347
G1 X98.595 Y58.236 E-.05509
G1 X98.492 Y58.188 E-.02622
G1 X97.925 Y58.082 E-.13319
G1 X97.35 Y58.122 E-.13318
G1 X96.877 Y58.278 E-.11491
;WIPE_END
G1 E-.04 F2100
G1 Z.6 F720
G1 X36.964 Y38.269 F10800
G1 Z.2 F720
G1 E.8 F2100
M204 S800
;TYPE:External perimeter
G1 F1200
G1 X36.592 Y38.866 E.02207
G1 X36.04 Y39.304 E.02208
G1 X35.717 Y39.438 E.01096
G1 X35.394 Y39.571 E.01098
G1 X34.698 Y39.646 E.02194
G1 X34.344 Y39.576 E.0113
G1 X34.025 Y39.481 E.01045
G1 X33.43 Y39.233 E.0202
G1 X32.848 Y38.878 E.02137
G1 X32.404 Y38.333 E.02207
G1 X32.134 Y37.688 E.02189
G1 X32.044 Y36.998 E.02183
G1 X32.14 Y36.304 E.02196
G1 X32.444 Y35.671 E.02203
G1 X32.937 Y35.193 E.02151
G1 X33.462 Y34.842 E.0198
G1 X34.031 Y34.562 E.01987
G1 X34.691 Y34.375 E.02152
G1 X35.389 Y34.428 E.02195
G1 X36.038 Y34.692 E.02197
G1 X36.592 Y35.117 E.02187
G1 X37.011 Y35.682 E.02207
G1 X37.219 Y36.355 E.02208
G1 X37.192 Y37.022 E.02094
G1 X37.137 Y37.32 E.00949
G1 X37.11 Y37.619 E.00944
G1 X36.977 Y38.21 E.01899
M204 S1000
G1 X37.195 Y38.595 F10800
;WIPE_START
G1 F8640
G1 X36.592 Y38.866 E-.1757
G1 X36.04 Y39.304 E-.16259
G1 X35.717 Y39.438 E-.08073
G1 X35.394 Y39.571 E-.08085
G1 X34.698 Y39.646 E-.16159
G1 X34.344 Y39.576 E-.08324
G1 X34.281 Y39.557 E-.0153
;WIPE_END
G1 E-.04 F2100
G1 Z.6 F720
G1 X31.775 Y36.194 F10800
G1 Z.2 F720
G1 E.8 F2100
M204 S800
;TYPE:Perimeter
G1 F1200
G1 X31.663 Y36.996 E.02541
G1 X31.767 Y37.787 E.02501
G1 X32.077 Y38.529 E.02519
G1 X32.437 Y38.97 E.01788
G1 X32.38 Y38.961 E.00181
G1 X31.534 Y39.069 E.02674
G1 X30.803 Y39.374 E.02485
G1 X2.904 Y55.481 E1.01006
G1 X2.565 Y55.622 E.0115
G1 X2.253 Y55.663 E.00987
G1 X1.941 Y55.622 E.00987
G1 X1.65 Y55.501 E.00987
G1 X1.4 Y55.31 E.00987
G1 X1.209 Y55.06 E.00987
G1 X1.088 Y54.769 E.00987
G1 X1.047 Y54.457 E.00987
G1 X1.088 Y54.145 E.00987
G1 X1.209 Y53.854 E.00987
G1 X1.4 Y53.604 E.00987
G1 X1.691 Y53.38 E.0115
G1 X31.902 Y35.929 E1.09393
G1 X31.801 Y36.14 E.00734
M204 S1000
;WIPE_START
G1 F8640
G1 X31.663 Y36.996 E-.20034
G1 X31.767 Y37.787 E-.18417
G1 X32.077 Y38.529 E-.18548
G1 X32.437 Y38.97 E-.13166
G1 X32.38 Y38.961 E-.01331
G1 X32.187 Y38.986 E-.04504
;WIPE_END
G1 E-.04 F2100
G1 Z.6 F720
G1 X62.606 Y1.236 F10800
G1 Z.2 F720
G1 E.8 F2100
M204 S800
G1 F1200
G1 X63.281 Y1.32 E.02133
G1 X64.228 Y1.577 E.03077
G1 X65.129 Y1.967 E.03077
G1 X65.966 Y2.479 E.03077
G1 X66.722 Y3.105 E.03077
G1 X67.381 Y3.832 E.03077
G1 X67.947 Y4.668 E.03165
G1 X70.219 Y8.604 E.14247
G1 X70.662 Y9.516 E.0318
G1 X70.962 Y10.455 E.03092
G1 X71.126 Y11.428 E.03092
G1 X71.149 Y12.413 E.03092
G1 X71.032 Y13.392 E.03092
G1 X70.777 Y14.345 E.03092
G1 X70.389 Y15.251 E.03092
G1 X69.875 Y16.093 E.03092
G1 X69.248 Y16.853 E.03092
G1 X68.518 Y17.517 E.03092
G1 X67.678 Y18.085 E.0318
G1 X38.52 Y34.92 E1.05566
G1 X37.939 Y35.356 E.02279
G1 X37.488 Y35.946 E.02329
G1 X37.353 Y35.509 E.01436
G1 X36.863 Y34.85 E.02575
G1 X36.227 Y34.362 E.02512
G1 X35.476 Y34.057 E.02541
G1 X35.172 Y34.034 E.00958
G1 X35.807 Y33.685 E.02273
G1 X65.393 Y16.603 E1.07117
G1 X66.192 Y16.044 E.03056
G1 X66.906 Y15.33 E.03165
G1 X67.485 Y14.504 E.03165
G1 X67.911 Y13.589 E.03165
G1 X68.172 Y12.614 E.03164
G1 X68.26 Y11.609 E.03165
G1 X68.172 Y10.603 E.03165
G1 X67.911 Y9.628 E.03164
G1 X67.499 Y8.745 E.03056
G1 X66.465 Y6.953 E.06486
G1 X65.906 Y6.155 E.03056
G1 X65.192 Y5.441 E.03165
G1 X64.365 Y4.862 E.03164
G1 X63.45 Y4.436 E.03165
G1 X62.476 Y4.174 E.03165
G1 X61.47 Y4.086 E.03164
G1 X60.465 Y4.174 E.03165
G1 X59.49 Y4.436 E.03165
G1 X58.606 Y4.848 E.03056
G1 X58.392 Y4.971 E.00775
G1 X58.124 Y4.396 E.01988
G1 X58.03 Y3.932 E.01486
G1 X58.036 Y3.458 E.01486
G1 X58.144 Y2.997 E.01486
G1 X58.348 Y2.569 E.01486
G1 X58.638 Y2.194 E.01486
G1 X59.001 Y1.89 E.01486
G1 X59.434 Y1.663 E.01531
G1 X60.357 Y1.375 E.03032
G1 X61.326 Y1.218 E.03077
G1 X62.307 Y1.199 E.03077
G1 X62.546 Y1.229 E.00756
M204 S1000
;WIPE_START
G1 F8640
G1 X63.281 Y1.32 E-.17093
G1 X64.228 Y1.577 E-.22661
G1 X65.129 Y1.967 E-.22662
G1 X65.631 Y2.274 E-.13584
;WIPE_END
G1 E-.04 F2100
G1 Z.6 F720
G1 X102.506 Y16.486 F10800
G1 Z.2 F720
G1 E.8 F2100
M204 S800
G1 F1200
G1 X102.506 Y52.868 E1.14075
G1 X102.514 Y53.39 E.01637
G1 X102.54 Y53.718 E.01032
G1 X102.103 Y53.321 E.01851
G1 X101.347 Y52.998 E.02578
G1 X100.558 Y52.894 E.02495
G1 X99.77 Y52.998 E.02492
G1 X99.219 Y53.226 E.01869
G1 X99.392 Y52.945 E.01035
G1 X99.772 Y52.031 E.03104
G1 X100.004 Y51.068 E.03104
G1 X100.08 Y50.112 E.03007
G1 X100.08 Y17.543 E1.02118
G1 X100.14 Y17.007 E.0169
G1 X100.303 Y16.541 E.0155
G1 X100.566 Y16.122 E.0155
G1 X100.916 Y15.773 E.0155
G1 X101.335 Y15.509 E.0155
G1 X101.801 Y15.346 E.0155
G1 X102.337 Y15.286 E.0169
G1 X102.506 Y15.286 E.00529
G1 X102.506 Y16.426 E.03574
M204 S1000
;WIPE_START
G1 F8640
G1 X102.506 Y19.717 E-.76
;WIPE_END
G1 E-.04 F2100
G1 Z.6 F720
G1 X100.558 Y53.274 F10800
G1 Z.2 F720
G1 E.8 F2100
M204 S800
;TYPE:External perimeter
G1 F1200
G1 X101.248 Y53.366 E.02181
G1 X101.896 Y53.642 E.02209
G1 X102.419 Y54.117 E.02215
G1 X102.585 Y54.442 E.01143
G1 X102.936 Y55.301 E.02911
G1 X103.02 Y55.938 E.02014
G1 X102.936 Y56.575 E.02014
G1 X102.585 Y57.434 E.02911
G1 X102.419 Y57.759 E.01143
G1 X101.895 Y58.234 E.02217
G1 X101.249 Y58.51 E.02205
G1 X100.558 Y58.602 E.02184
G1 X99.869 Y58.511 E.0218
G1 X99.226 Y58.245 E.0218
G1 X98.675 Y57.821 E.0218
G1 X98.251 Y57.27 E.0218
G1 X97.985 Y56.627 E.0218
G1 X97.895 Y55.938 E.0218
G1 X97.985 Y55.249 E.0218
G1 X98.251 Y54.606 E.0218
G1 X98.675 Y54.055 E.0218
G1 X99.226 Y53.631 E.0218
G1 X99.869 Y53.365 E.0218
G1 X100.499 Y53.282 E.01992
M204 S1000
G1 X100.758 Y52.928 F10800
;WIPE_START
G1 F8640
G1 X101.248 Y53.366 E-.17407
G1 X101.896 Y53.642 E-.16268
G1 X102.419 Y54.117 E-.16309
G1 X102.585 Y54.442 E-.08417
G1 X102.873 Y55.147 E-.17599
;WIPE_END
G1 E-.04 F2100
G1 Z.6 F720
G1 X102.527 Y58.3 F10800
G1 Z.2 F720
G1 E.8 F2100
M204 S800
;TYPE:Perimeter
G1 F1200
G1 X102.508 Y58.833 E.0167
G1 X102.506 Y92.203 E1.0463
G1 X102.487 Y92.467 E.00829
M73 Q0 S144
G1 X102.487 Y93.712 E.03904
G1 X101.806 Y93.712 E.02135
G1 X101.374 Y93.662 E.01361
G1 X101.008 Y93.532 E.01219
G1 X100.681 Y93.322 E.01219
G1 X100.409 Y93.043 E.01219
G1 X100.208 Y92.71 E.01219
G1 X100.089 Y92.344 E.01207
G1 X100.08 Y60.322 E1.00403
G1 X100.013 Y59.799 E.01651
G1 X99.8 Y59.263 E.01808
G1 X99.46 Y58.798 E.01809
G1 X99.343 Y58.701 E.00475
G1 X99.77 Y58.878 E.01449
G1 X100.558 Y58.982 E.02492
G1 X101.349 Y58.877 E.02501
G1 X102.102 Y58.556 E.02566
G1 X102.545 Y58.154 E.01876
G1 X102.534 Y58.241 E.00274
M204 S1000
;WIPE_START
G1 F8640
G1 X102.508 Y58.833 E-.1368
G1 X102.508 Y61.531 E-.6232
;WIPE_END
G1 E-.04 F2100
G1 Z.6 F720
G1 X102.864 Y94.089 F10800
G1 Z.2 F720
G1 E.8 F2100
M204 S800
;TYPE:External perimeter
G1 F1200
G1 X101.784 Y94.089 E.03385
G1 X101.288 Y94.032 E.01564
G1 X100.841 Y93.872 E.0149
G1 X100.441 Y93.616 E.0149
G1 X100.109 Y93.275 E.01491
G1 X99.863 Y92.868 E.01491
G1 X99.716 Y92.416 E.01492
G1 X99.703 Y92.217 E.00626
G1 X99.703 Y60.346 E.99929
G1 X99.645 Y59.894 E.01427
G1 X99.468 Y59.447 E.01509
G1 X99.184 Y59.058 E.01509
G1 X98.812 Y58.753 E.01509
G1 X98.376 Y58.55 E.01509
G1 X97.903 Y58.462 E.01509
G1 X97.423 Y58.494 E.01509
G1 X96.997 Y58.636 E.01408
G1 X94.382 Y59.796 E.08969
G1 X91.734 Y60.79 E.08869
G1 X89.032 Y61.629 E.08869
G1 X86.286 Y62.309 E.08869
G1 X83.506 Y62.828 E.08869
G1 X80.699 Y63.184 E.08869
G1 X77.877 Y63.376 E.08869
G1 X75.049 Y63.404 E.08869
G1 X72.223 Y63.267 E.08869
G1 X69.411 Y62.966 E.08869
G1 X66.62 Y62.502 E.08869
G1 X63.862 Y61.875 E.08869
G1 X61.144 Y61.09 E.08869
G1 X58.477 Y60.148 E.08869
G1 X55.869 Y59.051 E.08869
G1 X53.33 Y57.805 E.08869
G1 X50.867 Y56.414 E.08869
G1 X48.49 Y54.881 E.08869
G1 X46.205 Y53.213 E.08869
G1 X44.022 Y51.414 E.08869
G1 X41.947 Y49.491 E.08869
G1 X39.988 Y47.451 E.08869
G1 X38.15 Y45.3 E.08869
G1 X36.441 Y43.046 E.08869
G1 X34.845 Y40.668 E.08979
G1 X34.373 Y40.127 E.02254
M73 P0 R141
G1 X33.743 Y39.766 E.02277
G1 X33.102 Y39.498 E.02178
G1 X32.752 Y39.405 E.01136
G1 X32.373 Y39.342 E.01205
G1 X31.632 Y39.437 E.0234
G1 X30.97 Y39.713 E.02249
G1 X3.071 Y55.82 E1.01008
G1 X2.664 Y55.989 E.01384
G1 X2.253 Y56.043 E.01299
G1 X1.843 Y55.989 E.01299
G1 X1.46 Y55.831 E.01299
G1 X1.131 Y55.578 E.01299
G1 X.879 Y55.25 E.01299
G1 X.721 Y54.867 E.01299
G1 X.667 Y54.457 E.01299
G1 X.721 Y54.046 E.01299
G1 X.879 Y53.663 E.01299
G1 X1.131 Y53.335 E.01299
G1 X1.481 Y53.066 E.01384
M73 P1 R141
G1 X31.337 Y35.828 E1.08093
G1 X31.772 Y35.567 E.01592
M73 Q1 S144
G1 X32.193 Y35.281 E.01594
G1 X32.586 Y34.977 E.01558
G1 X33.399 Y34.45 E.03039
G1 X33.828 Y34.238 E.015
G1 X34.745 Y33.838 E.03135
G1 X35.622 Y33.356 E.03139
G1 X65.191 Y16.285 E1.07052
G1 X65.949 Y15.754 E.02901
G1 X66.616 Y15.087 E.02958
G1 X67.157 Y14.314 E.02958
G1 X67.555 Y13.459 E.02958
G1 X67.799 Y12.548 E.02958
G1 X67.882 Y11.609 E.02958
G1 X67.799 Y10.669 E.02958
G1 X67.555 Y9.758 E.02958
G1 X67.164 Y8.919 E.02901
G1 X66.146 Y7.156 E.06383
G1 X65.616 Y6.398 E.02901
G1 X64.949 Y5.731 E.02958
G1 X64.176 Y5.19 E.02958
G1 X63.321 Y4.791 E.02958
G1 X62.41 Y4.547 E.02958
G1 X61.47 Y4.465 E.02958
G1 X60.53 Y4.547 E.02958
G1 X59.619 Y4.791 E.02958
G1 X58.781 Y5.182 E.02901
G1 X58.254 Y5.486 E.01906
G1 X57.996 Y5.04 E.01616
G1 X57.763 Y4.512 E.01811
G1 X57.652 Y3.967 E.01741
G1 X57.66 Y3.412 E.01741
G1 X57.786 Y2.871 E.01741
G1 X58.025 Y2.37 E.01741
G1 X58.365 Y1.931 E.01741
G1 X58.791 Y1.574 E.01741
G1 X59.289 Y1.314 E.01765
G1 X60.27 Y1.007 E.03222
G1 X61.292 Y.841 E.03245
G1 X62.327 Y.822 E.03245
G1 X63.354 Y.949 E.03246
G1 X64.353 Y1.221 E.03245
G1 X65.303 Y1.631 E.03246
G1 X66.186 Y2.172 E.03245
G1 X66.983 Y2.832 E.03246
G1 X67.678 Y3.599 E.03245
G1 X68.267 Y4.468 E.03291
G1 X70.552 Y8.427 E.14331
G1 X71.013 Y9.375 E.03307
G1 X71.329 Y10.366 E.03261
G1 X71.502 Y11.392 E.03261
G1 X71.527 Y12.431 E.03261
G1 X71.403 Y13.464 E.03261
G1 X71.134 Y14.468 E.03261
G1 X70.725 Y15.424 E.03261
G1 X70.183 Y16.312 E.03261
G1 X69.521 Y17.114 E.03261
G1 X68.752 Y17.814 E.03261
G1 X67.878 Y18.405 E.03307
G1 X38.728 Y35.235 E1.05537
G1 X38.207 Y35.626 E.02045
G1 X37.792 Y36.168 E.02139
G1 X37.678 Y36.503 E.01108
G1 X37.6 Y36.813 E.01004
G1 X37.505 Y37.406 E.0188
G1 X37.437 Y38.009 E.01903
G1 X37.443 Y38.334 E.01019
G1 X37.477 Y38.682 E.01098
G1 X37.744 Y39.294 E.02093
G1 X39.322 Y41.605 E.08774
G1 X41.028 Y43.798 E.08712
G1 X42.866 Y45.883 E.08712
